packages/foundations/icons/Education/BookmarkedBook.svg

<svg width="24" height="24" viewBox="0 0 24 24" fill="none" xmlns="http://www.w3.org/2000/svg">
<g clip-path="url(#clip0_1_10084)">
<path fill-rule="evenodd" clip-rule="evenodd" d="M19.9991 -0.000732422C20.7978 -0.000732422 21.2742 0.889413 20.8312 1.55397L20.7279 1.72231C20.2782 2.52158 20.2797 3.50263 20.7275 4.27693L20.8416 4.45985C20.8624 4.49212 20.8813 4.52566 20.8983 4.56033L20.9038 4.57235C20.9724 4.71586 21.0029 4.86568 21.0006 5.01201L21 21.0001C21 22.5321 20.4248 23.8875 19.2598 23.9934L19.1111 24.0001H4.88888C3.67464 24.0001 3.05094 22.706 3.00298 21.1906L2.99999 21.0001L2.99915 2.99927C2.99915 1.34241 4.34229 -0.000732422 5.99915 -0.000732422L19.9991 -0.000732422ZM11.75 12.0001C11.75 12.6181 11.0444 12.9709 10.55 12.6001L8.99915 11.4373L7.44999 12.6001C6.98464 12.9491 6.33226 12.6571 6.25712 12.1063L6.24999 12.0001L6.24915 5.99827L5.99915 5.99927C5.64854 5.99927 5.31199 5.93912 4.99923 5.82859L4.99999 21.0001C4.99999 21.347 5.05061 21.6659 5.13136 21.899L5.17099 21.9991H18.83L18.8686 21.899C18.9359 21.7047 18.9823 21.4509 18.9959 21.1709L19 21.0001L18.9991 5.99827H11.7491L11.75 12.0001ZM7.74915 10.4993L8.54999 9.90011C8.78702 9.72233 9.10307 9.70258 9.35767 9.84085L9.44999 9.90011L10.2491 10.4993V5.99827H7.74915V10.4993ZM18.5041 1.99927H5.99915C5.48631 1.99927 5.06364 2.38531 5.00587 2.88265L4.99915 2.99927C4.99915 3.55155 5.44686 3.99927 5.99915 3.99927H18.5031L18.4589 3.77302C18.3684 3.24153 18.372 2.69815 18.4691 2.1685L18.5041 1.99927Z" fill="#3D474D"/>
</g>
<defs>
<clipPath id="clip0_1_10084">
<rect width="24" height="24" fill="white"/>
</clipPath>
</defs>
</svg>

<svg xmlns="http://www.w3.org/2000/svg" fill="none" viewBox="0 0 24 24" width="100%" height="100%">
  <g clip-path="url(#a)">
    <path fill="#3D474D" fill-rule="evenodd" d="M20 0a1 1 0 0 1 .831 1.554l-.103.168c-.45.8-.448 1.78 0 2.555l.114.183a.99.99 0 0 1 .056.1l.006.012a.98.98 0 0 1 .097.44L21 21c0 1.532-.575 2.887-1.74 2.993l-.15.007H4.89c-1.214 0-1.838-1.294-1.886-2.81L3 21V3a3 3 0 0 1 3-3h14Zm-8.25 12a.75.75 0 0 1-1.2.6L9 11.437 7.45 12.6a.75.75 0 0 1-1.193-.494L6.25 12V5.998L6 6c-.351 0-.688-.06-1-.17V21c0 .347.05.666.131.899l.04.1H18.83l.039-.1c.067-.194.113-.448.127-.728L19 21V5.997h-7.25V12Zm-4-1.5.8-.6a.75.75 0 0 1 .808-.06l.092.06.8.6V5.997h-2.5V10.5ZM18.503 2H6a1 1 0 0 0-.993.883L5 2.999a1 1 0 0 0 1 1h12.504l-.044-.226a4.61 4.61 0 0 1 .01-1.605L18.504 2Z" clip-rule="evenodd"/>
  </g>
  <defs>
    <clipPath id="a">
      <path fill="#fff" d="M0 0h24v24H0z"/>
    </clipPath>
  </defs>
</svg>
